!!! OTL: Berkowitz309
!!! Chapter: 1
!!! Section: III
!!! Page: 75
!!! Mode: 
!!! Encoder: DJB
**kern
*staff1
*I"Piano
=1-
*clefC3
*k[]
*a:
*M3/8
8c\L
8a\J
16r
16e\
=2
8e\L
8cc\J
16r
16e\
=3
8d\L
8b\
8g#\J
=4
4a\
16f\LL
16e\JJ
=5
8a\L
8c\J
16r
16e\
=6
8f\L
8B\
8d\J
=7
4.c\
=8
4B/
8r
=9
8A\L
8f\
8d\J
=10
4e\
8B/
=11
8c\L
8a\
8b\J
=12
!!linebreak:original
4g#\
8e\
=13
8a\L
8c\
8e\J
=14
8d\L
8c\
8B\J
=15
[4.A/
=16
4A/]
8r
==
*-
